X:377
%%etbk:tnset id:517,pos:2,rep:3x,ant:
%%etbk:color #ffffcc
%%etbk:pldat 2016-08-21T11:28,2016-08-04T18:25,2016-07-21T18:58,2016-07-15T14:52,2016-07-07T15:57,2016-06-12T13:14,2016-05-25T15:40,2014-12-18T18:17,2014-02-10T18:42,2014-02-07T15:37,2014-02-06T18:03,2013-12-11T16:33,2013-11-27T18:55,2013-10-08T16:37,2013-10-04T17:28,2013-08-28T16:51,2013-05-06T18:27
T: Toormore, The
Z: Piano Box Version by Martin Fleischmann
H: Created 2013-02-19 /  Last Modified 2016-05-25
M: 12/8
L: 1/8
R: slide
K: Ador
|: "am"!1!E2!2!A {B}A!2!G!1!A !3!c2d !5!e3 | "G"!4!d2!2!d ded !1!B2!2!d !5!g3 | "am"!1!E2!2!A {B}A!2!G!1!A !3!c2d !5!e2c | "G"!4!d2!3!c !2!A{c}AG "am"A3 A3 :|
|: "am"!5!eAe !4!ded !3!cec !2!BdB | !1!A2!2!A !5!d!4!c!2!A "G"!1!G2!2!E ED!2!E | "am"!2!E2!5!A A!2!G!1!A !3!c2d !5!e2c | "G"!4!d2!3!c !2!A{c}AG "am"A3 A3 :|


